X:1
T:Coming to the Savior’s Cross
T:John E. Kurzenknabe
T:Coming to the Savior’s Cross
T:Public Domain
T:Public Domain
C:John E. Kurzenknabe
Z:Public Domain
%%score 1 ( 2 3 )
L:1/8
M:2/4
K:Ab
V:1 treble 
V:2 bass 
V:3 bass 
V:1
 [CE]<[CE] [DF]>[CE] | [CA][DB] [Ec]2 | [EB][EB] [EB]2 | [Ec][Ee] [Ee]2 | [Ae]>[Ac] [Ae][Ac] | %5
w: 1.~Com- ing to the|Sav- ior’s cross,|Hal- lowed cross,|sav- ing cross;|Poor and need- y,|
w: 2.~Com- ing to the|Sav- ior’s blood,|Crim- son blood,|sav- ing blood;|Pre- cious fount that|
w: 3.~Com- ing to the|Sav- ior’s love,|Won- drous love,|sav- ing love;|Arms are o- pen|
w: 4.~Com- ing to the|Sav- ior’s home,|Bless- èd home,|eter- nal home;|Friends and loved ones|
 [Ac][EA] ([FA][DF]) | [CE]>[CE] [DF][DG] | [EA][EB] [Ec]2 | [Ee]>[Ac] [Ae][Ac] | %9
w: sin- sick, blind, *|Bring thy bur- dens;|thou shalt find|Here a true and|
w: flows for thee *|From the cross of|Cal- va- ry;|Have a cleans- ing|
w: to re- ceive *|All thy sins He|will for- give|If thou on- ly|
w: there we’ll see, *|Crowns and palms of|vic- to- ry;|Safe through all e-|
 [Ac][EA] ([FA][DF]) | [CE]>[CE] [DF][DG] | [CA]3 z ||"^Refrain" [Ae]>[Ae] [Ae][Ac] | %13
w: ten- der Friend, *|At the sav- ing|cross.||
w: full and free, *|In the sav- ing|blood.|Hear the in- vi-|
w: canst be- lieve *|In that sav- ing|love.||
w: ter- ni- ty, *|In that bless- èd|home.||
 [Ae][Ae] [Ae]2 | [Ac]>[Ac] [Ac][EA] | [Ec][EA] ([FA][DF]) | [CE]>[CE] [DF][CE] | [EA][EB] [Ec]2 | %18
w: |||||
w: ta- tion— Come!|Why in sin yet|long- er roam? *|Hast- en, sin- ner,|hi- ther come,|
w: |||||
w: |||||
 [Ec]2 [Dc]>[DB] | [CA]3 z |] %20
w: ||
w: While yet there’s|room.|
w: ||
w: ||
V:2
 [A,,A,]<[A,,A,] [A,,A,]>[A,,A,] | [A,,A,][A,,A,] [A,,A,]2 | [E,G,][E,G,] [E,G,]2 | %3
 A,[A,C] [A,C]2 | [A,C]>[A,E] [A,C][A,E] | [A,E][C,E] (DA,) | [E,A,]>[E,A,] [E,G,][E,B,] | %7
 [C,A,][E,G,] A,2 | [A,C]>[A,E] [A,C][A,E] | [A,E][C,E] (DA,) | [E,A,]>[E,A,] [E,G,][E,B,] | %11
 [A,,A,]3 z || [A,C]>[A,C] [A,C][A,E] | [A,C][A,C] [A,C]2 | [A,E]>[A,E] [A,E][A,C] | %15
 A,[C,A,] [D,A,]2 | [A,,A,]>[A,,A,] [A,,A,][A,,A,] | [C,A,][E,G,] A,2 | [E,A,]2 [E,G,]>[E,G,] | %19
 [A,,A,]3 z |] %20
V:3
 x4 | x4 | x4 | A, x3 | x4 | x2 D,2 | x4 | x2 A,2 | x4 | x2 D,2 | x4 | x4 || x4 | x4 | x4 | A, x3 | %16
 x4 | x2 A,2 | x4 | x4 |] %20

